img/meteo_soleil.svg

<?xml version="1.0" encoding="utf-8"?>
<!-- Generator: Adobe Illustrator 22.1.0, SVG Export Plug-In . SVG Version: 6.00 Build 0)  -->
<svg version="1.1" id="Calque_12" xmlns="http://www.w3.org/2000/svg" xmlns:xlink="http://www.w3.org/1999/xlink" x="0px" y="0px"
	 viewBox="0 0 128 128" style="enable-background:new 0 0 128 128;" xml:space="preserve">
<style type="text/css">
	.st0{fill:#50A1AD;}
	.st1{fill:#FED766;}
	.st2{fill:#FBB03B;}
</style>
<g>
	<path class="st0" d="M128,64c0,35.3-28.7,64-64,64C28.7,128,0,99.3,0,64C0,28.7,28.7,0,64,0C99.3,0,128,28.7,128,64z"/>
	<g>
		<path class="st1" d="M90.6,72.4c1.2-3.8,12.4-7.4,15.5-8.4c-3.1-0.9-14.3-4.6-15.5-8.4C89.1,51.2,98.7,39,98.7,39
			s-14.6,5.4-18.3,2.6c-3.7-2.7-3.1-18.2-3.1-18.2S68.6,36.3,64,36.3c-4.6,0-13.3-12.9-13.3-12.9s0.6,15.5-3.1,18.2
			C43.9,44.4,29.3,39,29.3,39s9.6,12.2,8.2,16.6C36.2,59.4,25,63.1,21.9,64c3.1,0.9,14.3,4.6,15.5,8.4c1.4,4.4-8.2,16.6-8.2,16.6
			s14.6-5.4,18.3-2.6c3.7,2.7,3.1,18.2,3.1,18.2S59.4,91.7,64,91.7c4.6,0,13.3,12.9,13.3,12.9s-0.6-15.5,3.1-18.2
			c3.7-2.7,18.3,2.6,18.3,2.6S89.1,76.8,90.6,72.4z"/>
		<path class="st2" d="M64,52.3c-6.5,0-11.8,5.2-11.9,11.7c0.1,6.5,5.3,11.7,11.9,11.7c6.5,0,11.8-5.2,11.9-11.7
			C75.8,57.5,70.5,52.3,64,52.3z"/>
	</g>
</g>
</svg>

<?xml version="1.0" encoding="UTF-8" standalone="no"?>
<!-- Generator: Adobe Illustrator 22.1.0, SVG Export Plug-In . SVG Version: 6.00 Build 0)  -->

<svg
   version="1.1"
   id="Calque_12"
   x="0px"
   y="0px"
   viewBox="0 0 128 128"
   style="enable-background:new 0 0 128 128;"
   xml:space="preserve"
   sodipodi:docname="meteo_soleil.svg"
   inkscape:version="1.3 (0e150ed6c4, 2023-07-21)"
   xmlns:inkscape="http://www.inkscape.org/namespaces/inkscape"
   xmlns:sodipodi="http://sodipodi.sourceforge.net/DTD/sodipodi-0.dtd"
   xmlns="http://www.w3.org/2000/svg"
   xmlns:svg="http://www.w3.org/2000/svg"><defs
   id="defs4">&#10;	&#10;	&#10;</defs><sodipodi:namedview
   id="namedview4"
   pagecolor="#ffffff"
   bordercolor="#666666"
   borderopacity="1.0"
   inkscape:showpageshadow="2"
   inkscape:pageopacity="0.0"
   inkscape:pagecheckerboard="0"
   inkscape:deskcolor="#d1d1d1"
   inkscape:zoom="6.5390625"
   inkscape:cx="63.923536"
   inkscape:cy="64"
   inkscape:window-width="1920"
   inkscape:window-height="1043"
   inkscape:window-x="0"
   inkscape:window-y="0"
   inkscape:window-maximized="1"
   inkscape:current-layer="Calque_12" />&#10;<style
   type="text/css"
   id="style1">&#10;	.st0{fill:#50A1AD;}&#10;	.st1{fill:#FED766;}&#10;	.st2{fill:#FBB03B;}&#10;</style>&#10;<g
   id="g3">&#10;		<path
   class="st1"
   d="M 90.6,72.4 C 91.8,68.6 103,65 106.1,64 103,63.1 91.8,59.4 90.6,55.6 89.1,51.2 98.7,39 98.7,39 c 0,0 -14.6,5.4 -18.3,2.6 -3.7,-2.7 -3.1,-18.2 -3.1,-18.2 0,0 -8.7,12.9 -13.3,12.9 -4.6,0 -13.3,-12.9 -13.3,-12.9 0,0 0.6,15.5 -3.1,18.2 C 43.9,44.4 29.3,39 29.3,39 c 0,0 9.6,12.2 8.2,16.6 -1.3,3.8 -12.5,7.5 -15.6,8.4 3.1,0.9 14.3,4.6 15.5,8.4 1.4,4.4 -8.2,16.6 -8.2,16.6 0,0 14.6,-5.4 18.3,-2.6 3.7,2.7 3.1,18.2 3.1,18.2 0,0 8.8,-12.9 13.4,-12.9 4.6,0 13.3,12.9 13.3,12.9 0,0 -0.6,-15.5 3.1,-18.2 3.7,-2.7 18.3,2.6 18.3,2.6 0,0 -9.6,-12.2 -8.1,-16.6 z"
   id="path2" />&#10;		<path
   class="st2"
   d="M 64,52.3 C 57.5,52.3 52.2,57.5 52.1,64 52.2,70.5 57.4,75.7 64,75.7 70.5,75.7 75.8,70.5 75.9,64 75.8,57.5 70.5,52.3 64,52.3 Z"
   id="path3" />&#10;	</g>&#10;</svg>
